assets/svg/app/incognito.svg

<svg width="28" height="28" viewBox="0 0 28 28" fill="none" xmlns="http://www.w3.org/2000/svg">
<path d="M13.4167 12.7168C8.75 12.7168 4.2 13.7668 0 15.9835H26.7167C22.5167 13.7668 18.0833 12.7168 13.4167 12.7168Z" fill="#828295"/>
<path d="M19.4833 17.2666C17.5 17.2666 15.8666 18.5499 15.2833 20.2999C14.1166 19.9499 13.0666 19.9499 12.0166 20.1833C11.3166 18.5499 9.79997 17.3833 7.81663 17.3833C5.36663 17.3833 3.3833 19.3666 3.3833 21.8166C3.3833 24.2666 5.36663 26.2499 7.81663 26.2499C10.2666 26.2499 12.25 24.2666 12.25 21.8166V21.3499C13.1833 21.1166 14.1166 21.2333 15.05 21.5833V21.9333C15.05 24.3833 17.0333 26.3666 19.4833 26.3666C21.9333 26.3666 23.9166 24.3833 23.9166 21.9333C23.9166 19.3666 21.9333 17.2666 19.4833 17.2666ZM11.0833 21.8166C11.0833 23.6833 9.56663 25.0833 7.81663 25.0833C5.94997 25.0833 4.54997 23.5666 4.54997 21.8166C4.54997 20.0666 6.06663 18.5499 7.81663 18.5499C9.21663 18.5499 10.3833 19.3666 10.85 20.5333C10.9666 20.8833 11.0833 21.2333 11.0833 21.8166C11.0833 21.6999 11.0833 21.6999 11.0833 21.8166ZM19.4833 25.0833C17.6166 25.0833 16.2166 23.5666 16.2166 21.8166C16.2166 20.0666 17.7333 18.5499 19.4833 18.5499C21.2333 18.5499 22.75 20.0666 22.75 21.8166C22.75 23.5666 21.2333 25.0833 19.4833 25.0833Z" fill="#828295"/>
<path d="M19.4833 2.3335L11.55 3.61683L7.69997 2.3335L5.1333 10.1502H22.05L19.4833 2.3335Z" fill="#828295"/>
</svg>

<svg viewBox="0 0 28 28" fill="none" xmlns="http://www.w3.org/2000/svg">
    <path d="M13.417 12.717C8.75 12.717 4.2 13.767 0 15.983h26.717c-4.2-2.216-8.634-3.266-13.3-3.266zm6.066 4.55a4.416 4.416 0 00-4.2 3.033 6.255 6.255 0 00-3.266-.117c-.7-1.633-2.217-2.8-4.2-2.8a4.431 4.431 0 00-4.434 4.434 4.431 4.431 0 004.434 4.433 4.431 4.431 0 004.433-4.433v-.467c.933-.233 1.867-.117 2.8.233v.35a4.431 4.431 0 004.433 4.434 4.431 4.431 0 004.434-4.434c0-2.566-1.984-4.666-4.434-4.666zm-8.4 4.55a3.261 3.261 0 01-3.266 3.266 3.261 3.261 0 01-3.267-3.266c0-1.75 1.517-3.267 3.267-3.267 1.4 0 2.566.817 3.033 1.983.117.35.233.7.233 1.284 0-.117 0-.117 0 0zm8.4 3.266a3.261 3.261 0 01-3.266-3.266c0-1.75 1.516-3.267 3.266-3.267s3.267 1.517 3.267 3.267-1.517 3.266-3.267 3.266zm0-22.75L11.55 3.617 7.7 2.333 5.133 10.15H22.05l-2.567-7.817z" fill="#828295"/>
</svg>
